X:1
T:[ID 8-71]
T:[ID 8-71]
T:Bezeichnung standardisiert: Kein gr\"ossere Freud auf Erden ist; Tantz Kein gr\"ossere Freud auf Erden ist
T:Urheber unbekannt Datum in der hier transkribierten schriftlichen Quelle: 1792
C:Urheber unbekannt
C:Datum in der hier transkribierten schriftlichen Quelle: 1792
L:1/8
M:6/8
K:D
V:1 treble 
V:1
 A | d2 d d2 f | e>fg g3 | f>ga a>gf | e2 e e2 A | d2 d d2 f | e>fg g2 a/g/ | f>ed e>dc | %8
 d2 d d2 :: g | f>ga a3 | e>fg g3 | f>ga a>gf | e2 e e2 A | d2 d d2 f | e>fg g2 a/g/ | f>ed e>dc | %17
 d2 d d2 :| %18

